packages/calcite-ui-icons/icons/mosaic-method-maximum-16.svg

<?xml version="1.0" encoding="UTF-8"?><svg id="icons" xmlns="http://www.w3.org/2000/svg" viewBox="0 0 16 16"><defs><style>.cls-1{fill:none;}.cls-2{opacity:.5;}.cls-3{opacity:.25;}</style></defs><path class="cls-2" d="M9,3v1h1v-1h-1Z"/><path class="cls-3" d="M7,3h1v1h-1v-1ZM5,1.00067v.99866c.00018.00024.00024.00037.00043.00067h.99957v-1h-.99957c-.00018.00024-.00024.00037-.00043.00067ZM7.00043,1c-.00018.00024-.00024.00037-.00043.00067v.99866c.00018.00024.00024.00037.00043.00067h.99957v-1h-.99957ZM3,7h1v-1h-1v1ZM1,5h1v-1h-1v1Z"/><path d="M11,0h-7v5h7V0ZM6,4h-1v-1h1v1ZM6,2h-1v-1h1v1ZM8,4h-1v-1h1v1ZM8,2h-1v-1h1v1ZM10,4h-1v-1h1v1ZM10,2h-1v-1h1v1ZM3,3H0v5h4v-1h-1V3ZM2,7h-1v-1h1v1ZM2,5h-1v-1h1v1ZM6,15h10v1H5V6h1v9ZM9,7v-1h1v1h-1ZM11,6h1v1h-1v-1ZM14,7h-1v-1h1v1ZM16,6v1h-1v-1h1ZM7,7v-1h1v1h-1ZM14.23242,12.23828c.9812.87231,1.74048.90991,1.76758.91174v.69958c-.04102,0-1.02246-.01172-2.23242-1.08789-.59277-.52637-.9375-1.66699-1.27148-2.76953-.25879-.85254-.64941-2.14258-.99609-2.14258s-.7373,1.29004-.99609,2.14258c-.33398,1.10254-.67871,2.24316-1.27148,2.76953-1.20996,1.07617-2.19141,1.08789-2.23242,1.08789v-.69958c.0271-.00183.78638-.03943,1.76758-.91174.44434-.39551.77539-1.48633,1.06641-2.44922.42969-1.41602.7998-2.63867,1.66602-2.63867s1.23633,1.22266,1.66602,2.63867c.29102.96289.62207,2.05371,1.06641,2.44922Z"/><rect class="cls-1" width="16" height="16"/></svg>

<svg xmlns="http://www.w3.org/2000/svg" viewBox="0 0 16 16"><path d="M9 3v1h1V3H9z" opacity=".5"/><path d="M7 3h1v1H7V3zM5 1v1h1V1H5zm2 0v1h1V1H7zM3 7h1V6H3v1zM1 5h1V4H1v1z" opacity=".25"/><path d="M11 0H4v5h7V0zM6 4H5V3h1v1zm0-2H5V1h1v1zm2 2H7V3h1v1zm0-2H7V1h1v1zm2 2H9V3h1v1zm0-2H9V1h1v1zM3 3H0v5h4V7H3V3zM2 7H1V6h1v1zm0-2H1V4h1v1zm4 10h10v1H5V6h1v9zm3-8V6h1v1H9zm2-1h1v1h-1V6zm3 1h-1V6h1v1zm2-1v1h-1V6h1zM7 7V6h1v1H7zm7.232 5.238c.982.873 1.74.91 1.768.912v.7c-.041 0-1.022-.012-2.232-1.088-.593-.527-.938-1.667-1.272-2.77-.259-.852-.65-2.142-.996-2.142s-.737 1.29-.996 2.142c-.334 1.103-.679 2.243-1.272 2.77C8.022 13.838 7.041 13.85 7 13.85v-.7c.027-.002.786-.04 1.768-.912.444-.395.775-1.486 1.066-2.449.43-1.416.8-2.639 1.666-2.639s1.236 1.223 1.666 2.64c.291.962.622 2.053 1.066 2.448z"/><path fill="none" d="M0 0h16v16H0z"/></svg>
